X: 1575
T: Angus Chisholm's
R: polka
M: 2/4
K: Dmajor
|:a/^g/a/b/ ad'|f2 a2|d/c/d/e/ f/e/d/B/|AF A2|G/F/G/A/ BA/G/|
F/G/A dc/d/|1 B/e/e e/f/g/f/|e/d/c/B/ B/A/f/g/:|2 B/d/e/f/ g/e/c/e/|A/d/d dF/G/||
A/B/A/F/ Df|Ad f/d/f/e/|d/c/d/e/ df/b/|a2 aa/f/|
b/b/b a/a/a|g/g/g f/f/f|e/f/g/f/ e/d/c/d/|e/d/c/B/ B/A/F/A/|
A/B/A/F/ Df|Ad ff/e/|d/c/d/e/ df/b/|a2 aa/f/|
bB Bf/b/|aA AA|g/f/e/d/ c/A/B/c/|d2 df/g/||

